images/icons/linoleum.svg

<svg height="32pt" viewBox="0 0 32 32" width="32pt" xmlns="http://www.w3.org/2000/svg"><g fill="#fff"><path d="m7.804688 5.472656c.261718-.261718.261718-.683594 0-.945312-.261719-.257813-.683594-.257813-.941407 0-.261719.261718-.261719.683594 0 .945312.257813.257813.679688.257813.941407 0zm0 0"/><path d="m32 18.332031c0-.367187-.296875-.664062-.667969-.664062v-1.335938c.371094 0 .667969-.296875.667969-.664062 0-.367188-.296875-.667969-.667969-.667969v-1.332031c.371094 0 .667969-.300781.667969-.667969s-.296875-.667969-.667969-.667969v-1.332031c.371094 0 .667969-.300781.667969-.667969 0-.367187-.296875-.664062-.667969-.664062v-1.335938c.371094 0 .667969-.296875.667969-.664062 0-.367188-.296875-.667969-.667969-.667969v-1.332031c.371094 0 .667969-.300781.667969-.667969s-.296875-.667969-.667969-.667969v-1.332031c.371094 0 .667969-.300781.667969-.667969 0-.367187-.296875-.664062-.667969-.664062h-24.664062v.011719c-1.617188.0625-3.121094.34375-4.296875.816406-1.527344.609375-2.371094 1.5-2.371094 2.503906v22c0 1.003906.84375 1.890625 2.371094 2.503906 1.335937.535156 3.097656.828125 4.960937.828125 1.867188 0 3.628907-.292969 4.964844-.828125 1.527344-.613281 2.371094-1.5 2.371094-2.503906h16.664062c.371094 0 .667969-.300781.667969-.667969 0-.367187-.296875-.664062-.667969-.664062v-1.335938c.371094 0 .667969-.296875.667969-.664062 0-.371094-.296875-.667969-.667969-.667969v-1.332031c.371094 0 .667969-.300781.667969-.667969s-.296875-.667969-.667969-.667969v-1.332031c.371094 0 .667969-.300781.667969-.667969zm-29.132812-14.597656c1.179687-.472656 2.769531-.734375 4.464843-.734375 1.699219 0 3.285157.261719 4.46875.734375.917969.367187 1.515625.855469 1.53125 1.25-.023437.152344-.441406 2.015625-6 2.015625-5.558593 0-5.972656-1.863281-6-2.015625.019531-.394531.613281-.882813 1.535157-1.25zm-1.535157 8.582031c.003907.011719 0 .015625 0 .015625zm0 7.335938c.003907.007812 0 .015625 0 .015625zm12 7.347656c0 .394531-.601562.894531-1.53125 1.265625-1.183593.472656-2.769531.734375-4.46875.734375-1.695312 0-3.28125-.261719-4.464843-.734375-.933594-.371094-1.535157-.871094-1.535157-1.265625v-5.296875c1.253907.859375 3.269531 1.296875 6 1.296875 2.734375 0 4.75-.4375 6-1.296875zm0-7.355469c-.015625.113281-.371093 2.023438-6 2.023438-5.625 0-5.984375-1.910157-6-2.023438v-5.273437c1.253907.859375 3.269531 1.296875 6 1.296875 2.734375 0 4.75-.4375 6-1.296875zm0-7.332031c-.015625.113281-.371093 2.019531-6 2.019531-5.625 0-5.984375-1.90625-6-2.019531v-5.273438c1.253907.859376 3.269531 1.292969 6 1.292969 2.734375 0 4.75-.433593 6-1.292969zm16.667969 13.355469h-15.332031v-6.667969h15.332031zm0-8h-15.332031v-6.667969h15.332031zm0-8h-15.332031v-4.667969c0-.753906-.476563-1.445312-1.363281-2h16.695312zm0 0"/></g></svg>

<?xml version="1.0" encoding="UTF-8"?>
<svg xmlns="http://www.w3.org/2000/svg" xmlns:xlink="http://www.w3.org/1999/xlink" width="32pt" height="32pt" viewBox="0 0 32 32" version="1.1">
<g id="surface1">
<path style=" stroke:none;fill-rule:nonzero;fill:rgb(255%,255%,255%);fill-opacity:1;" d="M 7.804688 5.472656 C 8.066406 5.210938 8.066406 4.789062 7.804688 4.527344 C 7.542969 4.269531 7.121094 4.269531 6.863281 4.527344 C 6.601562 4.789062 6.601562 5.210938 6.863281 5.472656 C 7.121094 5.730469 7.542969 5.730469 7.804688 5.472656 Z M 7.804688 5.472656 "/>
<path style=" stroke:none;fill-rule:nonzero;fill:rgb(255%,255%,255%);fill-opacity:1;" d="M 32 18.332031 C 32 17.964844 31.703125 17.667969 31.332031 17.667969 L 31.332031 16.332031 C 31.703125 16.332031 32 16.035156 32 15.667969 C 32 15.300781 31.703125 15 31.332031 15 L 31.332031 13.667969 C 31.703125 13.667969 32 13.367188 32 13 C 32 12.632812 31.703125 12.332031 31.332031 12.332031 L 31.332031 11 C 31.703125 11 32 10.699219 32 10.332031 C 32 9.964844 31.703125 9.667969 31.332031 9.667969 L 31.332031 8.332031 C 31.703125 8.332031 32 8.035156 32 7.667969 C 32 7.300781 31.703125 7 31.332031 7 L 31.332031 5.667969 C 31.703125 5.667969 32 5.367188 32 5 C 32 4.632812 31.703125 4.332031 31.332031 4.332031 L 31.332031 3 C 31.703125 3 32 2.699219 32 2.332031 C 32 1.964844 31.703125 1.667969 31.332031 1.667969 L 6.667969 1.667969 L 6.667969 1.679688 C 5.050781 1.742188 3.546875 2.023438 2.371094 2.496094 C 0.84375 3.105469 0 3.996094 0 5 L 0 27 C 0 28.003906 0.84375 28.890625 2.371094 29.503906 C 3.707031 30.039062 5.46875 30.332031 7.332031 30.332031 C 9.199219 30.332031 10.960938 30.039062 12.296875 29.503906 C 13.824219 28.890625 14.667969 28.003906 14.667969 27 L 31.332031 27 C 31.703125 27 32 26.699219 32 26.332031 C 32 25.964844 31.703125 25.667969 31.332031 25.667969 L 31.332031 24.332031 C 31.703125 24.332031 32 24.035156 32 23.667969 C 32 23.296875 31.703125 23 31.332031 23 L 31.332031 21.667969 C 31.703125 21.667969 32 21.367188 32 21 C 32 20.632812 31.703125 20.332031 31.332031 20.332031 L 31.332031 19 C 31.703125 19 32 18.699219 32 18.332031 Z M 2.867188 3.734375 C 4.046875 3.261719 5.636719 3 7.332031 3 C 9.03125 3 10.617188 3.261719 11.800781 3.734375 C 12.71875 4.101562 13.316406 4.589844 13.332031 4.984375 C 13.308594 5.136719 12.890625 7 7.332031 7 C 1.773438 7 1.359375 5.136719 1.332031 4.984375 C 1.351562 4.589844 1.945312 4.101562 2.867188 3.734375 Z M 1.332031 12.316406 C 1.335938 12.328125 1.332031 12.332031 1.332031 12.332031 Z M 1.332031 19.652344 C 1.335938 19.660156 1.332031 19.667969 1.332031 19.667969 Z M 13.332031 27 C 13.332031 27.394531 12.730469 27.894531 11.800781 28.265625 C 10.617188 28.738281 9.03125 29 7.332031 29 C 5.636719 29 4.050781 28.738281 2.867188 28.265625 C 1.933594 27.894531 1.332031 27.394531 1.332031 27 L 1.332031 21.703125 C 2.585938 22.5625 4.601562 23 7.332031 23 C 10.066406 23 12.082031 22.5625 13.332031 21.703125 Z M 13.332031 19.644531 C 13.316406 19.757812 12.960938 21.667969 7.332031 21.667969 C 1.707031 21.667969 1.347656 19.757812 1.332031 19.644531 L 1.332031 14.371094 C 2.585938 15.230469 4.601562 15.667969 7.332031 15.667969 C 10.066406 15.667969 12.082031 15.230469 13.332031 14.371094 Z M 13.332031 12.3125 C 13.316406 12.425781 12.960938 14.332031 7.332031 14.332031 C 1.707031 14.332031 1.347656 12.425781 1.332031 12.3125 L 1.332031 7.039062 C 2.585938 7.898438 4.601562 8.332031 7.332031 8.332031 C 10.066406 8.332031 12.082031 7.898438 13.332031 7.039062 Z M 30 25.667969 L 14.667969 25.667969 L 14.667969 19 L 30 19 Z M 30 17.667969 L 14.667969 17.667969 L 14.667969 11 L 30 11 Z M 30 9.667969 L 14.667969 9.667969 L 14.667969 5 C 14.667969 4.246094 14.191406 3.554688 13.304688 3 L 30 3 Z M 30 9.667969 "/>
</g>
</svg>
